X: 18
T: Jinse changzong huangbiao ma
%%abc-version 2.0
%%abcx-abcm2ps-target-version 5.9.1 (29 Sep 2008)
%%abc-creator hum2abc beta
%%abcx-conversion-date 2013/10/02 07:44:27
%%abc-edited-by Helmut Schaffrath
%%humdrum-veritas 3322112078
%%humdrum-veritas-data 29330719
%%continueall 1
%%barnumbers 0
L: 1/8
M: 3/4
K: A
c2<B2B (3c/ e/ c/ [I:setbarnb 1]| 
B c2<f2g/ b/ | 
c6 | 
c B/ c/e4 | 
f ec4 | 
f2<F2-F B/ A/ | 
E F2<B2c// B// c// e// | 
A4F z | 
E FA4 | 
B AF4 |]  



